src/components/Icon/assets/volume-up-filled.svg

<svg width="24" height="24" viewBox="0 0 24 24" fill="none" xmlns="http://www.w3.org/2000/svg">
<path fill-rule="evenodd" clip-rule="evenodd" d="M13.0138 1.99951H14.0138C14.5658 1.99951 15.0138 2.44751 15.0138 2.99951V20.9995C15.0138 21.5515 14.5658 21.9995 14.0138 21.9995H13.0138C12.7488 21.9995 12.4938 21.8945 12.3068 21.7065L7.59979 16.9995H3.01379C2.46179 16.9995 2.01379 16.5515 2.01379 15.9995V7.99951C2.01379 7.44751 2.46179 6.99951 3.01379 6.99951H7.59979L12.3068 2.29251C12.4938 2.10451 12.7488 1.99951 13.0138 1.99951ZM20.1139 5.70648L18.6999 7.12048C21.3899 9.81048 21.3899 14.1885 18.6999 16.8785L20.1139 18.2925C23.5839 14.8225 23.5839 9.17648 20.1139 5.70648ZM17.6974 8.12299L16.2834 9.53699C17.6414 10.895 17.6414 13.104 16.2834 14.462L17.6974 15.876C19.8354 13.739 19.8354 10.261 17.6974 8.12299Z" fill="#65676A"/>
</svg>

<svg xmlns="http://www.w3.org/2000/svg" width="24" height="24" viewBox="0 0 24 24">
    <path fill="#65676A" fill-rule="evenodd" d="M14.014 2c.552 0 1 .448 1 1v18c0 .552-.448 1-1 1h-1c-.265 0-.52-.105-.707-.293L7.6 17H3.014c-.552 0-1-.448-1-1V8c0-.552.448-1 1-1H7.6l4.707-4.707c.187-.188.442-.293.707-.293zm6.1 3.707c3.47 3.47 3.47 9.116 0 12.586L18.7 16.879c2.69-2.69 2.69-7.068 0-9.758zm-2.417 2.416c2.138 2.138 2.138 5.616 0 7.753l-1.414-1.414c1.358-1.358 1.358-3.567 0-4.925z"/>
</svg>
